X:167
M:2/4
L:1/8
K:Bb
|:B2 (3dcB|bBbB|B2 (3dcB|AFAF|B2 (3dcB|gedc|dfdB|"tr"c2 B2:|

